X: 5427
T: Bull Pup
R: polka
M: 2/4
K: Dmajor
|:DF AA|DF A>D|GB dd|GB d>d|
DF AB|c/B/A Bc|d2 d2:|
|:fa dd|fa d>d|gf ef|g/f/ e/d/ e2|
fa d>d|fa d>d|c/B/A Bc|d2 d2:|

